**kern	**dynam
*clefC3	*
*k[b-]	*
*F:	*
*M3/4	*
=1	=1
!LO:TX:a:B:t=Allegro.	!
(<[4F	p
8FL]	.
16GL	.
16FJJ	.
8E'L)	.
8F'J	.
=2	=2
4C	.
4r	.
4r	.
=3	=3
[4F	.
(8FL]	.
16GL	.
16FJJ)	.
8E'L	.
8F'J	.
=4	=4
4D	.
4r	.
4r	.
=5	=5
(>2.d	.
=6	=6
[2.c)	[
=7	=7
(>4c]	[
4d	.
4G)	.
=8	=8
(>8cL	.
8Bn	.
8c	.
8BJ	.
4c)	.
=9	=9
[4F	f
(8FL]	.
16GL	.
16FJJ)	.
8E'L	.
8F'J	.
=10	=10
!!linebreak:original
4C	.
4r	.
4r	.
=11	=11
[4F	.
(8FL]	.
16GL	.
16FJJ)	.
8E'L	.
8G'J	.
=12	=12
4D	.
4r	.
4r	.
=13	=13
2.r	.
=14	=14
2.b-	p
=15	=15
2.r	[
=16	=16
2.ee-X	<
=17	=17
2.r	[
=18	=18
(>4.f#X	.
8gL	.
8a)	.
8b-J	.
=19	=19
(>2cc	.
4e)	.
=20	=20
4f	p
4r	.
4r	.
=21	=21
2.r	.
=22	=22
2.a-X	sf
=23	=23
2.r	.
=24	=24
!!linebreak:original
2.B-X	sf
=25	=25
2.r	.
=26	=26
2e-X	sf
4e-	.
=27	=27
(>2f#X	sf
4g')	.
=28	=28
4B-'	f
4B-'	.
4B-'	.
=29	=29
8AL	.
8cJ	p
8cL	.
8c	.
8c	.
8cJ	.
=30	=30
8cL	.
8c	.
8c	.
8c	.
8c	.
8cJ	.
=31	=31
2.c	.
=32	=32
2.c	.
=33	=33
2.c	.
=34	=34
2.c	.
=35	=35
2.e	.
=36	=36
2.e	.
=37	=37
!!linebreak:original
8eL	.
8e	.
8c#X	.
8c#	.
8e	.
8eJ	.
=38	=38
8dL	.
8d	.
8d	.
8d	.
8d	.
8dJ	.
=39	=39
8dL	.
8d	.
8Bn	.
8B	.
8d	.
8dJ	.
=40	=40
8cL	.
8c	.
8c	.
8c	.
8c	.
8cJ	.
=41	=41
(4.E-X	pp
16FLL	.
16E-JJ)	.
8D'L	.
8E-'J	.
=42	=42
2.E-X	.
=43	=43
(<4.E-X	.
16FLL	.
16E-JJ	.
8D'L)	.
8E-'J	.
=44	=44
2.E-X	.
=45	=45
!!linebreak:original
(<4.E-X	.
16FLL	.
16E-JJ	.
8D'L)	.
8E-'J	.
=46	=46
4E-X	.
!LO:TX:b:Bi:t=Cresc.	!
4an	.
4a	.
=47	=47
2.Bn	sf
=48	=48
4c'	.
4f'	f
4e-X'	.
=49	=49
4d	.
8r	.
8Bn'L	p
8B'	.
8c'J	.
=50	=50
!LO:TX:b:Bi:t=Cresc.	!
4B-	.
8r	.
8g'L	.
8g'	.
8g'J	.
=51	=51
4g	.
8r	.
8Bn'L	.
8B'	.
8c'J	.
=52	=52
4Bn	.
8r	.
8g'L	.
8g'	.
8g'J	.
=53	=53
4g	.
8r	.
!LO:TX:b:Bi:t=Cresc.	!
8Bn'L	.
8B'	.
8c'J	.
=54	=54
!!linebreak:original
16BnLL	ff
16G	.
16A	.
16BJJ	.
16cLL	.
16d	.
16e	.
16f#XJJ	.
16gLL	.
16f#	.
16g	.
16f#JJ	.
=55	=55
4g	.
4r	.
4r	.
=56	=56
2.r	.
=57	=57
2.r	.
=58	=58
4r	.
4r	.
8fn'L	p
8fJ	.
=59	=59
(>8e	.
8eL	.
8dJ)	.
8dL)	.
8cJ	.
8c	.
=60	=60
2Bn	.
(>8e'L	.
8eJ	.
=61	=61
8f)	.
8fL	.
8dJ)	.
8dL)	.
(>8BnJ	.
8B	.
=62	=62
8G#X)	.
(>8G#L	.
8eJ)	.
8eL	.
8dJ)	.
8d	.
=63	=63
!!linebreak:original
(>8c	.
8cL)	.
(>8AJ	.
8AL	.
8dJ)	.
8d	.
=64	=64
8Gn)	.
(8GL	.
8gJ)	.
8r	.
4r	.
=65	=65
2.r	.
=66	=66
4r	.
4r	.
8G'L	.
[8GJ	.
=67	=67
8G]	.
(8gL	.
8fJ)	.
(>8fL	.
8eJ)	.
8e	.
=68	=68
4.d	.
8r	.
4r	.
=69	=69
4r	.
8a-X'	.
(8a-L	.
8fJ)	.
(8f	.
=70	=70
8d)	.
!LO:TX:b:Bi:t=Cresc.	!
(8dL	.
8e-XJ)	.
(8cL	.
8F#XJ)	.
(8F#	.
=71	=71
8G)	.
(>8GL	.
8gJ)	.
(<8gL	.
8GJ)	.
8G	.
=72	=72
!!linebreak:original
8c	p
8CL	.
8C	.
8C	.
8C	.
8CJ	.
=73	=73
8CL	.
8C	.
8C	.
8C	.
8C	.
8CJ	.
=74	=74
2.D	.
=75	=75
!LO:TX:b:Bi:t=Cresc.	!
2.D 2.G	.
=76	=76
2.E 2.G	.
=77	=77
2.E	f
=78	=78
4F'	fp
4d'	.
4r	.
=79	=79
2.r	.
=80	=80
4r	.
4r	.
16r	.
16ALL	.
!LO:TX:b:Bi:t=Cresc.	!
16Bn	.
16c#XJJ	.
=81	=81
16dLL	.
16e	.
16f	.
16gJJ	.
16aLL	.
16g	.
16f	.
16eJJ	.
16dLL	.
16cn	.
16Bn	.
16AJJ	.
=82	=82
!!linebreak:original
4.G	f
(16ALL	.
16BnJJ	.
16cLL	.
16d	.
16e	.
16f#XJJ)	.
=83	=83
8gL	.
8fn	.
8f	.
8f	.
8f	.
8fJ	.
=84	=84
4e	.
(4.E	fp
8D)	.
=85	=85
(8DL	.
8Bn)	.
(8B	.
8c)	.
(8c	.
8FJ)	.
=86	=86
(8FL	.
8E)	.
(8E	.
8e)	.
(8e	.
8dJ)	.
=87	=87
8d'L	.
8BnJ	.
4B	.
4r	.
=88	=88
2.r	.
=89	=89
2.g	p
=90	=90
!LO:TX:b:Bi:t=Cresc.	!
[2.d	.
=91	=91
(4d]	fp
4e')	.
(4d'	.
=92	=92
!!linebreak:original
(4c'	.
(4.e	fp
8d)	.
=93	=93
(>8dL	.
8Bn)	.
8B	.
8c)	.
8c	.
8fJ)	.
=94	=94
(8fL	.
8e)	.
(8e	.
8ee)	.
(8ee	.
8ddJ)	.
=95	=95
(>8ddL	.
8bnJ)	.
4b	.
4r	.
=96	=96
2.r	.
=97	=97
2.c	.
=98	=98
2.A-X	sf
=99	=99
2F#X	sf
4Fn	sf
=100	=100
4E	ff
(4A'	.
4F')	.
=101	=101
8EL	.
8c	p
8c	.
8c	.
8c	.
8cJ	.
=102	=102
2.c	.
=103	=103
2.d	.
=104	=104
!!linebreak:original
2.d	.
=105	=105
2.c	.
=106	=106
2.c	.
=107	=107
2.d	.
=108	=108
2.d	.
=109	=109
4c'	.
4G' 4e	.
4r	.
=110	=110
2.r	.
=111	=111
4r	.
4r	.
16ELL	.
!LO:TX:b:Bi:t=Cresc.	!
16c	.
16Bn	.
16AJJ	.
=112	=112
16GLL	.
16F	.
16E	.
16DJJ	.
16CLL	.
(16Bn	.
16c	.
16B	.
16c	.
16B	.
16c	.
16BJJ)	.
=113	=113
4c'	.
4E'	.
4E'	.
=114	=114
4E'	.
4r	.
4r	.
=115:|!	=115:|!
4A	.
4r	f
4r	.
=116	=116
2.r	.
=117	=117
!!linebreak:original
16r	.
16aLL	.
16g#X	.
16f#XJJ	.
16eLL	.
16d	.
16c#X	.
16BnJJ	.
(16ALL	.
16G#X	.
16A	.
16G#JJ)	.
=118	=118
4A'	.
4A'	.
4A'	.
=119	=119
(4.B-X	fp
16cLL	.
16B-JJ)	.
8A'L	.
8B-'J	.
=120	=120
2.F	.
=121	=121
(4.B-	fp
16cLL	.
16B-JJ)	.
8A'L	.
8B-'J	.
=122	=122
2.G	.
=123	=123
[2.e-X	pp
=124	=124
(2e	.
4c)	.
=125	=125
2.r	.
=126	=126
[2.g	.
=127	=127
(2g]	.
4en)	.
=128	=128
2.r	.
=129	=129
2.r	.
=130	=130
!!linebreak:original
(4.b-	.
16ccLL	f
16b-JJ)	.
8a'L	.
8b-'J	.
=131	=131
4c#X'	.
4e'	.
4f'	.
=132	=132
4g'	.
4g'	.
4a'	.
=133	=133
4b-'	.
(4.b-	sf
8a)	.
=134	=134
4b-'	.
(4.b-	sf
8a)	.
=135	=135
2.r	.
=136	=136
2.r	.
=137	=137
4r	.
(4.e-X	.
16fLL	f
16e-JJ)	.
=138	=138
8d'L	.
8e-X'J	.
4c'	.
4d'	.
=139	=139
[4e-X	.
!	!LO:DY:a
(8e-L]	sf
16cL	.
16dJJ)	.
(8e-L	.
8dJ)	.
=140	=140
!!linebreak:original
[4e-X	.
!	!LO:DY:a
(8e-L]	sf
16cL	.
16dJJ)	.
(8e-L	.
8dJ)	.
=141	=141
(>4.a-X	f
16b-LL	.
16a-JJ)	.
8g'L	.
8a-'J	.
=142	=142
4Bn'	.
4c'	.
4c#X'	.
=143	=143
4d'	.
4e-X'	.
4en'	.
=144	=144
4f'	.
4a-X'	.
4g'	.
=145	=145
(8fL	.
16a-XL	.
16gJJ)	.
(4.f	sf
8g)	.
=146	=146
(>8fL	.
16a-XL	.
16gJJ)	.
(4.f	sf
8g)	.
=147	=147
(>8b-L	.
16gL	.
16a-XJJ)	.
(4.b-	sf
8a-)	.
=148	=148
!!linebreak:original
(8b-L	.
16gL	.
16a-XJJ)	.
(4.b-	sf
8a-)	.
=149	=149
(8g-XL	.
16e-XL	.
16fJJ)	.
(4.g-	sf
8f)	.
=150	=150
(>8g-XL	.
16e-XL	.
16fJJ)	.
(4.g-	.
8f)	sf
=151	=151
8B-L	fp
8B-	.
8B-	.
8B-	.
8B-	.
8B-J	.
=152	=152
2.B-	.
=153	=153
2.B-	.
=154	=154
2.B-	.
=155	=155
2.B-	.
=156	=156
2.B-	.
=157	=157
2.B-	.
=158	=158
2.B-	.
=159	=159
!!linebreak:original
2.A-X	fp
=160	=160
2.A-X	.
=161	=161
2.A-X	.
=162	=162
2.A-X	.
=163	=163
2.A-X	fp
=164	=164
2A-X	.
=165	=165
2.A-X	.
=166	=166
2.A-X	.
=167	=167
4G	.
[2c	sf
=168	=168
4c]	.
[2c	.
=169	=169
4c]	sf
[2c	.
=170	=170
4c]	.
4c	.
4c	.
=171	=171
4c	.
[2C [2c	sf
=172	=172
4C] 4c]	.
[2c [2e	.
=173	=173
!!linebreak:original
4c] 4e]	sf
[2c [2g	sf
=174	=174
(>4c] 4g]	.
4c' 4g	.
4c') 4g	.
=175	=175
2.c 2.g	sf
=176	=176
2.C 2.c	sf
=177	=177
8CL 8c	.
!LO:TX:b:Bi:t=Cresc.	!
8C 8c	.
8C 8c	.
8C 8c	.
8C 8c	.
8CJ 8c	.
=178	=178
8CL 8c	.
8C 8c	.
8C 8c	.
8C 8c	.
8C 8c	.
8CJ 8c	.
=179	=179
(<4.F	ff
16GLL	.
16FJJ)	.
8E'L	.
8F'J	.
=180	=180
4C	.
4r	.
4r	.
=181	=181
(<4.F	.
16GLL	.
16FJJ)	.
8E'L	.
8F'J	.
=182	=182
4D	.
4r	.
4r	.
=183	=183
!!linebreak:original
(2.d	p
=184	=184
[2.c)	[
=185	=185
(>4c]	>
4d	]
4G)	.
=186	=186
(<8cL	.
8Bn	.
8c	.
8BJ	.
4c)	.
=187	=187
2.r	.
=188	=188
(>4.a	.
16b-LL	p
16aJJ)	.
8g'L	.
8a'J	.
=189	=189
(>4b-	.
4g-X	.
4e-X)	.
=190	=190
4a-X'	.
4A-X'	.
4r	.
=191	=191
(>2d-X	.
8.g-XL	.
16e-XJk)	.
=192	=192
(>2d-X	.
4c)	.
=193	=193
!!linebreak:original
(>4b-	.
4g-X	.
4e-X)	.
=194	=194
4f'	.
4F'	.
4r	.
=195	=195
[2B-~	.
4B-']	.
=196	=196
!LO:TX:b:Bi:t=Cresc.	!
(2.A-X	.
=197	=197
2.F)	.
=198	=198
(<4.D-X	p
16E-XLL	.
16D-JJ)	.
8C'L	.
8D-'J	.
=199	=199
[2.D-X	.
=200	=200
(4.D	.
16E-XLL	.
16D-X'JJ)	.
8CL	.
8D-'J	.
=201	=201
[2.D-X	.
=202	=202
(<4.D	.
16E-XLL	.
16D-XJJ)	.
8C'L	.
8D-J	.
=203	=203
2.D-X	.
=204	=204
!!linebreak:original
(<4.D-X	.
16E-XLL	.
16D-JJ)	.
8C'L	.
8D-'J	.
=205	=205
2.D-X	.
=206	=206
!LO:TX:b:Bi:t=Cresc.	!
(4.D-X	.
16E-XLL	.
16D-JJ)	.
8C'L	.
8D-'J	.
=207	=207
2.D-X	.
=208	=208
(4.C	f
16d-XLL	.
16cJJ)	.
8Bn'L	.
8c'J	.
=209	=209
4c'	.
4G'	.
8A-X'L	.
8F'J	.
=210	=210
4E	p
8r	.
8e'L	.
8e'	.
8f'J	.
=211	=211
4e	.
8r	.
8c'	.
8c'L	.
8c'J	.
=212	=212
4c	.
8r	.
8E'L	.
8E'	.
8F'J	.
=213	=213
!!linebreak:original
4E	.
8r	.
8c'L	.
8c'	.
8c'J	.
=214	=214
4c	.
!LO:TX:b:Bi:t=Cresc.	!
8r	.
8g'L	.
8g'	.
8a-X'J	.
=215	=215
16g	ff
16CLL	.
16D	.
16EJJ	.
16FLL	.
16G	.
16An	.
16BnJJ	.
16cLL	.
16B	.
16c	.
16BJJ	.
=216	=216
4c	.
4r	.
4r	.
=217	=217
2.r	.
=218	=218
2.r	.
=219	=219
4r	.
4r	.
8b-L	p
(8b-J	.
=220	=220
8aL)	.
(8aJ	.
8gL)	.
(8gJ	.
8fL)	.
(8fJ	.
=221	=221
4.e)	.
8r	.
8a'L	.
(8aJ	.
=222	=222
!!linebreak:original
8b-	.
(8b-L	.
8gJ)	.
(8gL	.
8eJ)	.
(8e	.
=223	=223
8c#XL)	.
(8c#J	.
8aL)	.
(>8aJ	.
8gL)	.
(8gJ	.
=224	=224
8f)	.
(8fL	.
8dJ)	.
(8dL	.
8gJ)	.
(8g	.
=225	=225
4.cn)	.
8r	.
4r	.
=226	=226
2.r	.
=227	=227
4r	.
4r	.
8g'L	.
(8gJ	.
=228	=228
8f)	.
(8fL	.
8eJ)	.
(8eL	.
8cJ)	.
(8c	.
=229	=229
4.d-X)	.
8r	.
4r	.
=230	=230
4r	.
8dd-X'	.
(8dd-L	.
8b-J)	.
(8b-	.
=231	=231
!!linebreak:original
8g	.
!LO:TX:b:Bi:t=Cresc.	!
(8gL	.
8a-XJ)	.
(>8fL	.
8B-J)	.
(8B-	.
=232	=232
8c)	.
(>8cL	sf
8ccJ)	.
(8ccL	.
8cJ)	.
8c	.
=233	=233
8fL	.
8F'	.
8F'	p
8F'	.
8F'	.
8F'J	.
=234	=234
2F	.
=235	=235
2.G	.
=236	=236
2.G	.
=237	=237
!LO:TX:b:Bi:t=Cresc.	!
2.A	.
=238	=238
2.A	.
=239	=239
4B-	fp
4d	.
4r	.
=240	=240
2.r	.
=241	=241
4r	.
4r	.
16r	.
16DLL	.
16E	.
16F#XJJ	.
=242	=242
!!linebreak:original
16GLL	.
16A	.
16B-	.
16cJJ	.
16dLL	.
16c	.
16B-	.
16AJJ	.
16GLL	.
16F	.
16E	.
16DJJ	.
=243	=243
4.C	f
(16DLL	.
16EJJ	.
16FLL	.
16G	.
16A	.
16BnJJ)	.
=244	=244
8cL	.
8B-X	.
8B-	.
8B-	.
8B-	.
8B-J	.
=245	=245
4A'	.
(4.A	fp
8G)	.
=246	=246
(8GL	.
8E)	.
(8E	.
8F)	.
(8F	.
8B-J)	.
=247	=247
(8B-L	.
8AJ)	.
(8AL	.
8b-)	.
(8b-	.
8gJ)	.
=248	=248
!!linebreak:original
8gL	.
8eJ	.
4e	.
4r	.
=249	=249
2.r	.
=250	=250
2.c	.
=251	=251
[2.G	pp
=252	=252
(<4G]	fp
4A	.
(4G'	.
=253	=253
4F')	.
(4.a	fp
8g)	.
=254	=254
(8gL	.
8eJ)	.
(8eL	.
8fJ)	.
(8fL	.
8b-J)	.
=255	=255
(8b-L	.
8aJ)	.
(8AL	.
8aJ)	.
(8aL	.
8gJ)	.
=256	=256
(8gL	.
8eJ)	.
4e	.
4r	.
=257	=257
2.r	.
=258	=258
2.f	.
=259	=259
2.d-X	sf
=260	=260
!!linebreak:original
2Bn	sf
4B-X	sf
=261	=261
4A'	ff
4dn'	.
4B-'	.
=262	=262
8AL	p
8c	.
8c	.
8c	.
8c	.
8cJ	.
=263	=263
2.c	.
=264	=264
2.c	.
=265	=265
2c	.
=266	=266
2c	.
=267	=267
2c	.
=268	=268
2.c	.
=269	=269
2.c	.
=270	=270
4c'	.
4c'	.
4r	.
=271	=271
2.r	.
=272	=272
!!linebreak:original
16r	.
!LO:TX:b:Bi:t=Cresc.	!
16fLL	.
16e	.
16dJJ	.
16cLL	.
16B-	.
16A	.
16GJJ	.
16FLL	.
16f	.
16e	.
16dJJ	.
=273	=273
16cLL	.
16B-	.
16A	.
16GJJ	.
(<16FLL	.
16E	.
16F	.
16EJJ	.
16FLL	.
16E	.
16F	.
16EJJ)	.
=274	=274
4F'	ff
4G'	.
4A'	.
=275	=275
4B-'	.
4c'	.
4d'	.
=276	=276
[2.e-X	sf
=277	=277
2.e;	.
=278	=278
4D'	ff
4E'	.
4F#X'	.
=279	=279
!!linebreak:original
4G'	.
4A'	.
4B-'	.
=280	=280
[2.c	sf
=281	=281
2.c]	.
=282	=282
2.r	.
=283	=283
2.r	.
=284	=284
2.r	.
=285	=285
(<4.G	pp
16ALL	.
16GJJ)	.
8F#X'L	.
8G'J	.
=286	=286
4C'	.
4D'	.
4E'	.
=287	=287
4Fn'	.
4G'	.
4A'	.
=288	=288
(4B-	.
4G	.
4D)	.
=289	=289
(4.C	.
16dLL	.
16cJJ)	.
8Bn'L	.
8c'J	.
=290	=290
(4c	.
4A	.
4F)	.
=291	=291
(>4.C	.
16dLL)	.
16cJJ)	.
8Bn'L	.
8c'J	.
=292	=292
!!linebreak:original
!LO:TX:b:Bi:t=Cresc.	!
(4g	.
4e	.
4c)	.
=293	=293
(4ee	.
4b-X	.
4g)	.
=294	=294
2.f	p
=295	=295
2.B-	sf
=296	=296
2e-X	.
=297	=297
2.d	sf
=298	=298
2.g	.
=299	=299
2.f	sf
=300	=300
(>4.f	pp
16gnLL	.
16fJJ)	.
8e'L	.
8f'J	.
=301	=301
2g	.
4E	.
=302	=302
4F	pp
4C'	.
4C'	.
=303	=303
(<2.D-X	.
=304	=304
2.C	.
=305	=305
2.D-X)	.
=306	=306
!!linebreak:original
4C	.
!LO:TX:b:B:t=ADAGIO.	!
4f'	.
4f'	.
=307	=307
(>16fLL	.
16e	.
16d	.
16eJJ	.
16fLL	.
16e	.
16d	.
16eJJ	.
16fLL	.
16e	.
16d)	.
16eJJ	.
=308	=308
(>4f	pp
[4cc	.
4cc'])	.
=309	=309
!LO:TX:b:Bi:t=Cresc.	!
2.dd-X	.
=310	=310
4cc	f
4r	.
8e'L	sf
8f'J	.
=311	=311
4c	.
4r	.
8G#X'L	sf
8A'J	.
=312	=312
4F	.
4r	.
8C'L	sf
8E'J	.
=313	=313
4F'	.
4F'	.
4r	.
==314	==314
!!linebreak:original
*M9/8	*
(<8F~L	pp
8F~	.
8F~J)	.
(8A~L	.
(<8A~	.
8A~J)	.
8G~L	.
8G~	.
8G~J)	.
=315	=315
8FL	.
8F	<
8FJ	.
8AL	.
8A	.
8AJ	.
8GL	.
8G	.
8GJ	.
=316	=316
8FL	[
8F	>
8FJ	.
8AL	.
8A	.
8AJ	.
8c#XL	.
8c#	.
8c#J	]
=317	=317
8dL	.
8F	.
8FJ	.
8FL	.
8F	.
8FJ	.
8FL	.
8F	.
8FJ	.
=318	=318
8GL	.
8G	.
8GJ	.
8GL	.
8G	.
8GJ	.
8GL	.
8G	.
8GJ	.
=319	=319
!!linebreak:original
8GL	.
8G	.
8GJ	.
8GL	.
8G	.
8GJ	.
8GL	.
8G	.
8GJ	.
=320	=320
8AL	.
8A	.
8AJ	.
(<8AL	.
8A	.
8AJ	.
8AL	.
8G	.
8FJ)	.
=321	=321
!LO:TX:b:Bi:t=Cresc.	!
8B-L	.
8B-	.
8B-J	.
8B-L	.
8B-	.
8B-J	.
8BnL	.
8B	.
8BJ	.
=322	=322
(8EL	p
8A)	.
8A'J	.
[4A	.
(8AL]	.
8B-	.
8BnJ)	.
=323	=323
[4.E	.
8EL]	<
8A'	.
8A'J	.
(8AL	[
8B-	>
8BnJ)	.
=324	=324
4E	]
8r	.
4r	.
8r	.
(4.d	pp
=325	=325
!!linebreak:original
4c#X	.
8r	.
4r	.
8r	.
4.B-	sf
=326	=326
(<[4A	p
8AL]	.
!LO:TX:b:Bi:t=Cresc.	!
8G	.
8FJ	.
8EL	.
8D	.
8C#XJ)	.
=327	=327
8D~L	pp
8D~	.
8D~J	.
8FL	.
8F	.
8FJ	.
8EL	.
8E	.
8EJ	.
=328	=328
8DL	.
8D	.
8DJ	.
8FL	.
8F	.
8FJ	.
8AL	.
8A	.
8AJ	.
=329	=329
8DL	p
8d	.
8dJ	.
8dL	.
8d	.
8dJ	.
8d-XL	.
8d-	.
8d-J	.
=330	=330
8CL	.
8C	.
8CJ	.
8CL	.
8C	.
8CJ	.
8CL	.
8C	.
8CJ	.
=331	=331
!!linebreak:original
8cL	.
8c	.
8cJ	.
8cL	.
(>8c	.
8cJ	.
8cL	.
8e-X)	.
8cJ	.
=332	=332
!LO:TX:b:Bi:t=Cresc.	!
[2F	.
(8FL]	.
8d)	.
8dJ	.
=333	=333
4c	.
4r	.
=334	=334
4r	.
8r	.
8r	.
8eL	pp
8fJ	.
8gL	.
8a-X)	.
8fJ	.
=335	=335
4e	.
8r	.
4r	.
8r	.
4r	.
8r	.
=336	=336
(8CL	.
8E	.
8GJ)	.
(8CL	.
8E	.
8GJ)	.
8CL	.
8E	.
8GJ	.
=337	=337
!!linebreak:original
(8CL	.
8F	.
8AJ)	.
(8CL	.
8F	.
8AJ)	.
(8CL	.
8F	.
8AJ)	.
=338	=338
!LO:TX:b:Bi:t=Cresc.	!
(8CL	.
8G	.
8B-J)	.
(8CL	.
8G	.
8B-J)	.
(8CL	.
8G	.
8B-J)	.
=339	=339
(8EL	.
8c)	.
8c'J)	.
(8gL	.
8c)	.
8c'J)	.
(8fL	.
8c)	.
8c'J)	.
=340	=340
(8eL	.
8c)	.
8cJ	.
(8fL	.
8c)	.
8cJ	.
(8gL	.
8c)	.
8cJ	.
=341	=341
(8aL	.
8c)	.
8cJ	.
(8eL	.
8c)	.
8cJ	.
(8fL	.
8c)	.
8cJ	.
=342	=342
!!linebreak:original
(4.e	.
4.f	.
4.g)	.
=343	=343
4f	.
8r	.
4r	.
8r	.
4r	.
8r	.
=344	=344
[4.A	.
(<4A]	.
16dLL	.
16cJJ	.
16B-LL	.
16A	.
16B-	.
16A	.
16G	.
16FJJ)	.
=345	=345
(<16ELL	.
16F	.
16G	.
16F	.
16E	.
16FJJ	.
16GLL	.
16F	.
16E	.
16F	.
16G	.
16EJJ	.
16FLL	.
16E	.
16F	.
16G	.
16A-X	.
16FJJ)	.
=346	=346
!!linebreak:original
(<4.D-X	.
16FLL	sf
16E	.
16F	.
16E	.
16F	.
16EJJ)	.
(4c	.
8c	>
=347	=347
16ccLL	p
16bn	.
16cc	.
16b-X	.
16a	.
16gJJ)	.
(16fLL	.
16e	.
16f	.
16e-X	.
16d	.
16cJJ)	.
(16B-LL	.
16A	.
16B-	.
16A	.
16G	.
16FJJ)	.
=348	=348
(8E-XL	.
8B-)	.
8B-J	.
2.c	.
=349	=349
!LO:TX:b:Bi:t=Cresc.	!
(>8.B-L	.
16fL	.
16e	.
16fJJ)	.
(>4.g	.
4.f)	.
=350	=350
!!linebreak:original
4.B-	.
(16FLL	sf
16E	.
16F	.
16E	.
16F	.
16A-XJJ)	.
4c	.
(8c	>
=351	=351
4.cc)	]
(16bnLL	.
16cc)	.
(16dd	.
16cc)	.
(16g#X	.
16aJJ)	.
(16b-XLL	.
16a)	.
(16e	.
16f)	.
(16gn	.
16fJJ)	.
=352	=352
8B-L	.
8B-	.
8B-J	.
4B-	.
8r	.
4r	.
8r	.
=353	=353
8aL	.
8a	.
8aJ	.
4a	.
8r	.
4r	.
8r	.
=354	=354
8%9r	.
=355	=355
!!linebreak:original
(4G	pp
8F	.
4E	.
8D	.
4C	.
8E)	.
=356	=356
!LO:TX:b:Bi:t=Cresc.	!
(4F	.
8B-	.
[4.A)	.
(8AL]	.
8d	.
8eJ)	.
=357	=357
4d	p
8d	.
(4.c	.
4.B-)	>
=358	=358
4A	pp
8r	.
4A	.
8r	.
4r	.
8r	.
=359	=359
4c	pp
8r	.
4cc	.
8r	.
4r	.
8r	.
=360	=360
4c	.
8r	.
4cc	.
8r	.
4r	.
8r	.
=361	=361
(<4.D	f
4.G	.
4A)	.
8r	.
=362	=362
!!linebreak:original
(<[4.B-	sf
4B-]	.
(<16ALL	.
16GJJ)	.
16GLL	.
32AL	.
32GJ	.
16F#X	.
16G	.
16B-	.
16AJJ)	.
=363	=363
(4.G	sf
[4F#X)	.
!	!LO:DY:a
(<8F#L]	<
16F#L	[
16G	.
16A	.
16B-JJ)	.
=364	=364
[4.c	sf
(>4c]	.
16dLL	.
16cJJ	.
16BnLL	.
16c	.
16d	.
16c	.
16e-X	.
16dJJ)	.
=365	=365
(4.c	sf
[4.Bn)	.
8BL]	.
(16BL	.
16c	.
16d	.
16e-XJJ)	.
=366	=366
!!linebreak:original
!LO:TX:b:Bi:t=Cresc.	!
(>[4.f	.
8fL_	.
16fL]	.
16d	.
16Bn	.
16GJJ	.
16F#XLL	.
16G	.
16A-X	.
16G	.
16Fn	.
16.DJJ)	.
=367	=367
4E-X	pp
8r	.
4r	.
8r	.
4r	.
8r	.
=368	=368
4.E-X	.
4.A-X	.
4.B-	.
=369	=369
4c	.
8r	.
4r	.
8r	.
4r	.
8r	.
=370	=370
(<4.D	.
4.G	.
4.A)	.
=371	=371
(>4.B-	.
4.e-X	.
4.d)	.
=372	=372
4c#X 4e	.
8r	.
4r	.
8r	.
4r	.
8r	.
=373	=373
!!linebreak:original
4d	p
8r	.
4r	.
8r	.
4r	.
8r	.
=374	=374
4B-	pp
8r	.
4r	.
8r	.
4r	.
8r	.
=375	=375
4G	ppp
8r	.
4r	.
8r	.
4r	.
8r	.
=376	=376
(<8F~L	pp
8F~	.
8F~J)	.
8AL	.
8A	.
8AJ	.
8GL	.
8G	.
8GJ	.
=377	=377
!LO:TX:b:Bi:t=Cresc.	!
8FL	.
8F	.
8FJ	.
8AL	.
8A	.
8AJ	.
8GL	.
8G	.
8GJ	.
=378	=378
8FL	.
8F	.
8FJ	.
8AL	.
8A	.
8AJ	.
8c#XL	.
8c#	.
8c#J	.
=379	=379
!!linebreak:original
16r	.
(<16FLL	p
16A	.
16F	.
16A	.
16FJJ)	.
16r	.
(<16FLL	.
16A	.
16F	.
16A	.
16FJJ)	.
16r	.
(<16FLL	.
16B-	.
16F	.
16B-	.
16FJJ)	.
=380	=380
(<32GLLL	f
32F#X	.
32G	.
32F#	.
32G	.
32F#	.
32G	.
32AJJ	.
8B-'J)	.
(<16GLL	.
32F#L	.
32G	.
32F#	.
32G	.
32F#	.
32G	.
32AJJ	.
8B-'J)	.
(<32GLLL	.
32F#	.
32G	.
32A	.
32B-	.
32A	.
32B-	.
32A	.
32G	.
32Fn	.
32DJJJ)	.
=381	=381
!!linebreak:original
(>16C#X'LL	p
16E)	.
16G	.
16E	.
16G	.
16EJJ)	.
16r	.
(<16ELL	.
16G	.
16E	.
16G	.
16EJJ)	.
16r	.
(<16ELL	.
16G	.
16E	.
16G	.
16EJJ)	.
=382	=382
(<32ALLL	f
32G	.
32A	.
32G	.
32A	.
32G	.
32F	.
32EJJ	.
8D'J)	.
(<32ALLL	.
32G#X	.
32A	.
32G#	.
32A	.
32Gn	.
32F	.
32EJJ)	.
8D'J	.
(<32ALLL	.
32G#X	.
32A	.
32G#	.
32A	.
32Gn	.
32F-X	.
32EJJ	.
8D'J)	.
=383	=383
!!linebreak:original
16r	.
(16B-LL	.
16d	p
16B-	.
16d	.
16B-JJ)	.
16r	.
(16B-LL	.
16d	.
16B-	.
16d	.
16B-JJ)	.
16r	.
(16B-LL	.
16d	.
16B-	.
16d	.
16B-JJ)	.
=384	=384
8EL	.
(8A'	.
8A'J)	.
[4.A	.
8AL]	.
8B-	.
8BnJ	.
=385	=385
[4.E	.
(<8EL]	.
8A'	.
8A'J)	.
(8AL	.
!	!LO:DY:a
8B-	>
8BnJ)	.
=386	=386
4E	]
8r	.
4r	.
8r	pp
(4.d	.
=387	=387
4c#X)	.
8r	.
4r	.
8r	.
(4.B-	sf
=388	=388
!!linebreak:original
(8AL	.
8c#X	.
8eJ	.
[4.a	.
8aL])	.
(8a'	.
8a'J)	.
=389	=389
(>4.a	p
4.g	.
8f#X	.
32qg/	.
16f#'LL	.
16e	.
16f#)	.
16gJJ	.
=390	=390
4e	.
8r	.
!	!LO:DY:a
4r	<
8r	.
4r	.
8r	[
=391	=391
(8aL	.
16ddL	.
16cc#	.
16bn	.
16aJJ)	.
(16aLL	.
16g	.
16ee	.
16dd#X	.
16a	.
16gJJ)	.
(16gLL	.
16f#X	.
16ddn	.
16a	.
16g)	.
16f#JJ	.
=392	=392
(4.e	.
4.f#X	.
4.g)	.
=393	=393
!!linebreak:original
!	!LO:DY:a
4f#X	p
8r	.
!LO:TX:a:Bi:t=Cresc.	!
4r	.
8r	.
4r	.
8r	.
=394	=394
[4.F#X	.
(4F#]	.
[8Bn)	.
(16BLL]	.
16A	.
16G	.
16F#	.
16E	.
16DJJ)	.
=395	=395
!LO:TX:b:Bi:t=Cresc.	!
(16C#XLL	.
16D	.
16E	.
16D	.
16C#	.
16DJJ	.
16ELL	.
16D	.
16C#	.
16D	.
16E	.
16C#JJ	.
16DLL	.
16C#	.
16D	.
16E	.
16F	.
16DJJ)	.
=396	=396
(<4.G	.
16DLL	sf
16C#X	.
16D	.
16C#	.
16D	.
16FJJ)	.
(>4A	.
8a)	.
=397	=397
!!linebreak:original
(>16aLL	.
16g#X	.
16a	.
16gn	.
16f#X	.
16eJJ	.
16dLL	.
16c#X	.
16d	.
16cn	.
16Bn	.
16AJJ)	.
(4G	.
16ALL	.
16BJJ)	.
=398	=398
[2.c	.
8cL]	.
8c	.
8cJ	.
=399	=399
8.B-L	.
16dL	.
16e	.
16fJJ	.
(4.e	.
4.d)	.
=400	=400
(<4.G	.
16DLL	.
!	!LO:DY:a
16C#X	>
16D	.
16C#	.
16D	.
16FJJ)	.
4A	.
8A	]
=401	=401
!!linebreak:original
4.a	p
(16g#XLL	.
16a)	.
(16bn	.
16a)	.
(16e#X	.
16f#XJJ)	.
(16gnLL	.
16f#)	.
(16c#X	.
16d)	.
(16en	.
16dJJ)	.
=402	=402
8c#XL	.
8c#	.
8c#J	.
4c#	.
8r	.
4r	.
8r	.
=403	=403
8f#XL	.
8f#	.
8f#J	.
4f#	.
8r	.
4r	.
8r	.
=404	=404
8%9r	.
=405	=405
(>4e	pp
8d	.
4c#X	.
8Bn	.
4A	.
8E)	.
=406	=406
!!linebreak:original
(4D	.
8G)	.
[4.F#X	.
(8F#L]	.
8Bn	.
8c#XJ)	.
=407	=407
(4Bn~	.
8B')	.
(4.A	<
4.G)	>
=408	=408
16DLL	pp
16D	.
16D	.
16D	.
16D	.
16DJJ	.
16FLL	.
16F	.
16F	.
16F	.
16F	.
16FJJ	.
4.E 4.G	.
=409	=409
4.D	p
4.F	.
4.E 4.G	.
=410	=410
4.D	.
4.F	.
4.A	.
=411	=411
4.D	fp
4.D'	.
4.D	.
=412	=412
!!linebreak:original
!LO:TX:a:Bi:t=Cresc.	!
4.E 4.G	f
4.E 4.G	.
4.E 4.G	.
=413	=413
4.E 4.G	p
4.E 4.G	.
4.E 4.G	.
=414	=414
4.F 4.A	.
4.F 4.A	f
4.F 4.A	.
=415	=415
4B-	.
8r	f
4r	.
8r	.
4r	.
8r	.
=416	=416
4c 4e-X	.
8r	f
4r	.
8r	.
4r	.
8r	.
=417	=417
4B- 4d	f
!LO:TX:a:Bi:t=Cresc.	!
8r	.
4r	.
8r	.
4r	.
8r	.
=418	=418
16BnLL	ff
16B	.
16B	>
16B	.
16B	.
16BJJ	.
4.B	.
4.G	]
=419	=419
!!linebreak:original
(<8FL	p
(<8A~	.
8A~J)	.
8A~L	.
(<8A~	.
8A~J)	.
8A~L	.
!LO:TX:a:Bi:t=Cresc.	!
8A~	.
8A~J)	.
=420	=420
(8c#XL	.
8A)	>
8AJ	.
8A~L	]
(<8A~	.
8A~J)	.
8A~L	.
8A~	.
8A~J)	.
=421	=421
(8c#XL	>
8A)	>
8AJ	.
8A~L	]
8A~	.
8A~J)	.
(8AL	.
8F	.
8DJ)	.
=422	=422
[2.E [2.G	.
4.E] 4.G]	>
=423	=423
4F	pp
8r	.
4F	.
8r	.
4r	.
8r	.
==424	==424
!!linebreak:original
*M3/4	*
!LO:TX:a:t=Allegro molto.	!
2.A	p
=425	=425
2G	.
4c'	.
=426	=426
2.B-	.
=427	=427
2A	.
4d'	.
=428	=428
(2c	.
[4e)	.
=429	=429
4e]	.
4r	.
4r	.
=430	=430
(>2.f	.
=431	=431
4e)	.
4r	.
4r	.
=432	=432
2.FT	.
(16qqE/LL	f
16qqF/JJ)	.
=433	=433
4E	.
4r	.
4r	.
=434:|!|:	=434:|!|:
!!linebreak:original
(>2e-X~	p
4e-')	.
=435	=435
(2e-X	.
4B-)	.
=436	=436
(4B-	.
4A-X)	.
4A-')	.
=437	=437
(2c~	.
4c')	.
=438	=438
(>2c~	.
4c')	.
=439	=439
2c	.
4c'	.
=440	=440
4d-X'	.
4f'	.
4g-X'	.
=441	=441
4a-X'	.
4r	.
4r	.
=442	=442
4e'	pp
4g-X'	.
4a-X'	.
=443	=443
4b-'	.
4r	.
4r	.
=444	=444
!!linebreak:original
4f'	.
(4a-X'	.
4b-')	.
=445	=445
(2cc	.
8b-L	.
8a-XJ)	.
=446	=446
(>4g	.
4f	.
4e	.
=447	=447
4f	.
4d-X	.
4Bn)	.
=448	=448
4c'	.
4cc'	.
4r	.
=449	=449
4c'	.
4cc'	.
4r	.
=450	=450
4c'	.
4cc'	.
4r	.
=451	=451
4c'	.
4cc'	.
4r	.
=452	=452
4e'	.
4r	.
4r	.
=453	=453
4E'	.
4c'	.
4d'	.
=454	=454
4e'	.
4r	.
4r	.
=455	=455
!!linebreak:original
4B-'	.
4G'	.
4F'	.
=456	=456
4E'	.
4r	.
4r	.
=457	=457
4b-'	.
4g'	.
4f'	.
=458	=458
4e'	.
4r	.
4r	.
=459	=459
4r	.
4c	.
4c	.
=460	=460
!LO:TX:b:Bi:t=Cresc.	!
2c	.
[4d	.
=461	=461
4d]	.
4c'	.
4d'	.
=462	=462
2d	.
[4e	.
=463	=463
4e]	.
4d'	.
4e'	.
=464	=464
2e	p
[4e	.
=465	=465
4e']	.
4r	.
4r	.
=466	=466
!!linebreak:original
(>2f	pp
4a)	.
=467	=467
4a'	.
4r	.
4r	.
=468	=468
(2a	ppp
4cc)	.
=469	=469
4cc'	.
4r	.
4r	.
=470	=470
(>2.b-	.
=471	=471
4a)	.
4r	.
4r	.
=472	=472
2.B-T	.
(16qqA/LL	.
16qqB-/JJ)	.
=473	=473
4A	.
4r	.
4r	.
=474	=474
2.GT	.
(16qqF/LL	sf
16qqG/JJ)	.
=475	=475
!!linebreak:original
4F	.
4r	.
4r	.
=476	=476
2.GT	.
(16qqF/LL	sf
16qqG/JJ)	.
=477	=477
4F	.
4r	.
4r	.
=478	=478
2.GT	sf
(16qqF/LL	.
16qqG/JJ)	.
=479	=479
4F	.
4r	.
4r	.
=480	=480
4C	.
4f#X	.
4f#	.
=481	=481
4g	.
4d	.
4d	.
=482	=482
4r	.
4B-	.
4B-	.
=483	=483
4A	.
4r	.
4r	.
=484	=484
4C	.
4f#X	.
4f#	.
=485	=485
4g	.
4d	.
4d	.
=486	=486
4r	.
4B-	.
4B-	.
=487	=487
4A'	.
(4c'	.
4d')	.
=488	=488
!!linebreak:original
(2e	.
8dL	<
8cJ)	.
=489	=489
(4d'	.
4b-'	.
4a')	.
=490	=490
2a	.
4e'	.
=491	=491
(>4e	.
4a	[
4bn	.
=492	=492
4cc#X	.
4dd	.
4ee	.
=493	=493
4dd)	.
4e-X	f
4d	.
=494	=494
4c	.
4B-	.
4A	.
=495	=495
4B-)	.
(4b-	.
4bn	.
=496	=496
4cc)	.
(4E	.
4F	.
=497	=497
4G	.
4A	.
4B-	.
=498	=498
4c	.
4d	.
4e)	.
=499	=499
!!linebreak:original
(>4f	.
4c)	.
(4c	.
=500	=500
4B-)	.
4B-'	.
4G'	.
=501	=501
4A'	.
4r	.
[4A-X	sf
=502	=502
4A-]	.
4G'	.
4E'	.
=503	=503
4A	.
4r	.
[4A-X	sf
=504	=504
4A	.
4G'	.
4E'	.
=505	=505
4A'	.
4G'	sf
4E'	.
=506	=506
4A'	.
4g'	sf
4e'	.
=507	=507
4a'	.
4c'	.
4c'	.
=508	=508
4A'	.
4r	.
4r	.
=509:|!|:	=509:|!|:
!!linebreak:original
4c'	ff
4r	.
4C'	.
=510	=510
4c'	.
4r	.
4C'	.
=511	=511
4c'	.
4C'	.
4c'	.
=512	=512
4C'	.
4c'	.
4C'	.
=513	=513
2.D-X	p
=514	=514
[2.d-X	sf
=515	=515
2.d-_	p
=516	=516
(>2d-]	.
4c')	.
=517	=517
2.d-X	.
=518	=518
[2.d-X	sf
=519	=519
2.d-_	p
=520	=520
!!linebreak:original
(>2d-]	.
4c')	.
=521	=521
(>4d-X'	.
4d-'	.
4d-')	.
=522	=522
(>4d-X	.
4c	.
4Bn)	.
=523	=523
4c	.
4r	.
4C	.
=524	=524
4F	.
4r	.
4r	.
=525:|!	=525:|!
4f'	pp
4r	.
4F'	.
=526	=526
4f'	.
4r	.
4F'	.
=527	=527
4f'	.
4F'	.
4f'	.
=528	=528
4F'	.
4f'	.
4F'	.
=529	=529
[2.f	.
=530	=530
2.f_	.
=531	=531
!!linebreak:original
2.f_	.
=532	=532
2.f]	.
=533	=533
4g'	.
4G'	.
4g'	.
=534	=534
2.r	.
=535	=535
4f'	.
4F'	.
4f'	.
=536	=536
2.r	.
=537	=537
4c'	pp
4r	.
4C'	.
=538	=538
4c'	.
4r	.
4C'	.
=539	=539
4c'	.
4C'	.
4c'	.
=540	=540
4C'	.
4c'	.
4C'	.
=541	=541
4c'	.
!LO:TX:a:Bi:t=Cresc.	!
4r	.
4C'	.
=542	=542
4c'	.
4r	.
4C'	.
=543	=543
!!linebreak:original
4c'	.
4C'	.
4c'	.
=544	=544
4C#X'	.
4c#X'	.
4C#'	.
=545	=545
2.D	.
=546	=546
[2.D [2.G	fp
=547	=547
2.D_ 2.G]	.
=548	=548
2D_ 2G	.
4D'] 4A	.
=549	=549
2.D 2.G	.
=550	=550
[2.D [2.G	fp
=551	=551
2.D_ 2.G_	.
=552	=552
2D] 2G]	.
4D 4A	.
=553	=553
2.D	.
=554	=554
[2.D	fp
=555	=555
2.D_	.
=556	=556
!!linebreak:original
(<2D]	.
4E')	.
=557	=557
2.D	.
=558	=558
[2.D	fp
=559	=559
2.D_	.
=560	=560
2D]	.
4E'	.
=561	=561
2.C	.
=562	=562
[2.C	fp
=563	=563
2.C_	.
=564	=564
(<2C]	.
4c')	.
=565	=565
2.C	.
=566	=566
[2.C	fp
=567	=567
4C]	.
4r	.
4r	.
=568	=568
2.r	.
==569	==569
!!linebreak:original
*M2/4	*
!LO:TX:a:B:t=Allegro.	!
2r	.
=570	=570
8C'L	.
8C'	.
8C'J	.
8r	.
=571	=571
2r	.
=572	=572
8C'L	.
8C'	.
8C'J	.
8r	.
=573	=573
8r	.
4c	.
8c	.
=574	=574
8r	.
4c	.
8c	.
=575	=575
8r	.
4c	.
8d)	.
=576	=576
(>8eL	.
8f	.
8eJ)	.
8r	.
=577	=577
!!linebreak:original
(>24fLL	.
24e	.
24fJJ	.
24gLL	.
24f	.
24eJJ	.
24dLL	.
24c	.
24B-JJ	.
24ALL	.
24G	.
24FJJ)	.
=578	=578
8E'L	.
8E'	.
8G'J	.
8r	.
=579	=579
(>24gLL	.
24f#X	.
24gJJ	.
24aLL	.
24g	.
24fnJJ	.
24eLL	.
24d	.
24cJJ	.
24B-LL	.
24A	.
24GJJ)	.
=580	=580
8F'L	.
8F'	.
8A'J	.
8r	.
=581	=581
8r	.
4c	.
8c	.
=582	=582
8r	.
4c	.
8c	.
=583	=583
!!linebreak:original
8r	.
4c	.
8A'	.
2r	.
=584	=584
8B-'L	.
8G'	.
8F'	.
8dJ	.
=585	=585
4c	.
4C	.
=586	=586
4F	.
4r	.
=587	=587
2r	.
=588	=588
(<16BnLL	.
16c	.
16B	.
16cJJ	.
16BLL	.
16c	.
16G	.
16EJJ)	.
=589	=589
4C	.
4r	.
=590	=590
2r	.
=591	=591
2r	.
=592	=592
4r	.
8r	.
[8c	.
=593	=593
8c'L]	.
8c'	.
8c'	.
8c'J	.
=594	=594
4.c	.
8a'	.
=595	=595
!!linebreak:original
(<4.A	.
24ALL	.
24B-	.
24c#XJJ)	.
=596	=596
8d'L	.
8E'	.
8F'	.
8G'J	.
=597	=597
8A'L	.
8Bn'	.
8c'	.
8c#X'J	.
=598	=598
8d'L	.
8e'J	.
(16qqd/LL	.
16qqe/JJ)	.
[4f	.
=599	=599
(>8fL]	.
8e)	.
(8d	.
8cJ)	.
=600	=600
(8B-L	.
8A)	.
(8G	.
8FJ)	.
=601	=601
(8EL	.
8D)	.
8A'	.
8A'J	.
=602	=602
4D	.
4r	.
=603	=603
(>16g#XLL	.
16a	.
16g#	.
16aJJ	.
16g#LL	.
16a	.
16e)	.
16c#XJJ	.
=604	=604
!!linebreak:original
8A	.
8r	.
4r	.
=605	=605
2r	.
=606	=606
2r	.
=607	=607
8Bn 8d	.
8r	.
4r	.
=608	=608
8Bn	.
8r	.
8B	.
8r	.
=609	=609
(<8cL	.
8eJ)	.
8r	.
8e	.
=610	=610
8r	.
8a	.
8r	.
8d	.
=611	=611
(>[2D 2Bn	.
=612	=612
2D_) 2c	.
=613	=613
8D]) 8d	.
8DL	.
8F#X	.
8GJ	.
=614	=614
8AL	.
8D	.
8G	.
8AJ)	.
=615	=615
(<8BnL	.
8D	.
8A	.
8BJ)	.
=616	=616
!!linebreak:original
(<8cL	.
8D	.
8Bn	.
8cJ)	.
=617	=617
8d	.
4Bn	.
[8B	.
=618	=618
(<8B-L	.
8Bn	.
8c	.
8dJ)	.
=619	=619
[2G 2e	.
2r	.
=620	=620
[2G 2f	.
=621	=621
(<8G] 8g	.
8GL	.
8Bn	.
8cJ	.
=622	=622
8dL	.
8G	.
8c	.
8dJ)	.
=623	=623
(<8eL	.
8G	.
8d	.
8eJ	.
=624	=624
8fL	.
8G	.
8e	.
8fJ)	.
=625	=625
(<8gL	.
8G	.
8Bn	.
8cJ)	.
=626	=626
!!linebreak:original
(8dL	.
8G	.
8c	.
8dJ)	.
=627	=627
8e	.
8r	.
8r	.
(8Bn	.
=628	=628
8c)	.
8r	.
8r	.
(8G#X	.
=629	=629
8A)	.
8r	.
8r	.
(8E	.
=630	=630
8F)	.
8r	.
4r	.
=631	=631
8r	.
8c	.
8r	.
8f	.
=632	=632
8r	.
8e	.
8r	.
8d	.
=633	=633
2r	.
=634	=634
8r	.
(8GL	.
8cJ)	.
8r	.
=635	=635
8r	.
(8EL	.
8AJ)	.
=636	=636
!!linebreak:original
8r	.
(8cL	.
8fJ)	.
[8A	.
=637	=637
(8AL]	.
8f)	.
(8f'	.
8f'J)	.
=638	=638
(>4f	.
8eL	.
8dJ)	.
=639	=639
8c	.
4g	.
[8g	.
=640	=640
8g]	.
4g	.
[8g	.
=641	=641
(>8gL]	.
8g	.
8a	.
8fJ	.
=642	=642
8eL	.
8c	.
8d	.
8BnJ)	.
=643	=643
(<16c'LL	.
(16G	.
16e-X	.
16cJJ)	.
(16cLL	.
16Bn	.
16A	.
16BJJ)	.
=644	=644
!!linebreak:original
(<16c'LL	.
(16G	.
16e-X	.
16cJJ)	.
(<16cLL	.
16Bn	.
16A	.
16BJJ)	.
=645	=645
8cL	.
(<16GL	.
16E-XJJ	.
16A-XLL	.
16FJJ)	.
8r	.
=646	=646
(16GLL	.
16E-XJJ)	.
8r	.
(16FLL	.
16DJJ)	.
8r	.
=647	=647
16E-X'LL	.
16G'	.
16c'	.
16G'JJ	.
16c'LL	.
16G'	.
16c'	.
16G'JJ	.
=648	=648
16BnLL	.
16G	.
16B	.
16GJJ	.
16BLL	.
16G	.
16B	.
16GJJ	.
=649	=649
!!linebreak:original
16cLL	.
16G	.
16c	.
16GJJ	.
16cLL	.
16G	.
16E-X	.
16GJJ	.
=650	=650
16FLL	.
16G	.
16D	.
16GJJ	.
16FLL	.
16G	.
16D	.
16GJJ	.
=651	=651
(>4.c	.
8e)	.
=652	=652
(>4.f	.
8d)	.
=653	=653
(4.e	.
8c)	.
=654	=654
(8.dL	.
16BnJk)	.
8.BtL	.
32ALL	.
32BJJJ)	.
=655	=655
4.C 4.c	.
8C 8c	.
=656	=656
4.C 4.c	.
8C 8c	.
=657	=657
!!linebreak:original
4.C 4.c	.
8C 8c	.
=658	=658
(<4.D 4.c	.
8C) 8G	.
=659	=659
8C	.
8r	.
4r	.
=660	=660
8C'L	.
8C'	.
8C'J	.
8r	.
=661	=661
2r	.
=662	=662
8C'L	.
8C'	.
8C'J	.
8r	.
=663	=663
8r	.
4c	.
8c	.
=664	=664
8r	.
4c	.
8c	.
=665	=665
8r	.
4c	.
8d)	.
=666	=666
(>8eL	.
8f	.
8eJ	.
8r	.
=667	=667
!!linebreak:original
(>24fLL	.
24e	.
24fJJ	.
24gLL	.
24f	.
24eJJ	.
24dLL	.
24c	.
24B-JJ	.
24ALL	.
24G	.
24FJJ)	.
=668	=668
8E'L	.
8E'	.
8G'J	.
8r	.
=669	=669
2r	.
=670	=670
8A'L	.
8A	.
8c'J	.
8r	.
2r	.
=671	=671
8AL	.
8A	.
8cJ	.
8r	.
=672	=672
(<8F#XL	.
8F#	.
8dJ)	.
8r	.
=673	=673
8GL	.
8G	.
8gJ	.
8r	.
=674	=674
8c#XL	.
8c#	.
8eJ	.
8r	.
=675	=675
8dL	.
8d	.
8fJ	.
8r	.
=676	=676
!!linebreak:original
8B-L	.
8B-	.
8dJ	.
8r	.
2r	.
=677	=677
8c#X	.
8r	.
4r	.
=678	=678
4r	.
24b-LL	.
24a	.
24b-JJ	.
24ccLL	.
24b-	.
24aJJ)	.
=679	=679
8g'L	.
8f'	.
8e'J	.
8r	.
=680	=680
4r	.
(>24b-LL	.
24a	.
24b-JJ	.
24ccLL	.
24b-)	.
24aJJ	.
=681	=681
8g'L	.
8f'	.
8e'J	.
8r	.
=682	=682
4r	.
24b-LL	.
24a	.
24b-JJ	.
24ccLL	.
24b-	.
24aJJ)	.
=683	=683
!!linebreak:original
(>24gLL	.
24f#X	.
24gJJ	.
24aLL	.
24g	.
24fnJJ	.
8e'L)	.
8D'J	.
=684	=684
8E'L	.
8e'	.
8f'	.
8g'J	.
=685	=685
(>24aLL	.
24g#X	.
24aJJ	.
24b-LL	.
24a	.
24gnJJ	.
24fLL	.
24e	.
24fJJ	.
24gLL	.
24f)	.
24eJJ	.
=686	=686
(8d'L	.
8d')	.
8d'	.
8d'J	.
=687	=687
8c#X'L	.
8A'	.
8Bn'	.
8c#'J	.
=688	=688
8d'L	.
8e'	.
8f'	.
8f#X'J	.
=689	=689
8g	.
8r	.
4r	.
=690	=690
2r	.
=691	=691
2r	.
=692	=692
2r	.
=693	=693
!!linebreak:original
[2c	.
=694	=694
8cL]	.
(>32dLL	.
32e-X	.
32f	.
32gJJJ)	.
8a-X'L	.
8a-'J	.
=695	=695
(4a	.
8gL)	.
8f'J	.
=696	=696
8e-X'L	.
8d'	.
8c'	.
8B-'J	.
=697	=697
8A-X	.
8r	.
(>24cLL	.
24Bn	.
24cJJ	.
24dLL	.
24c	.
24B-XJJ)	.
=698	=698
2A-X	.
=699	=699
8A-X	.
4A-	.
8A-	.
2r	.
=700	=700
8A-X'L	.
8A-'	.
8A-'	.
8A-'J	.
=701	=701
!!linebreak:original
8A-X	.
8fL	.
8f	.
8fJ	.
2r	.
=702	=702
8fL	.
8f	.
8f	.
8fJ	.
=703	=703
8fL	.
8f	.
8f	.
8fJ	.
=704	=704
8fL	.
8f	.
8f'	.
8f'J	.
=705	=705
(>4.e-X	.
8c	.
=706	=706
4.A-X	.
8g-X	.
2r	.
=707	=707
4.f	.
8a-X	.
=708	=708
4.f	.
8d-X	.
=709	=709
4.e-X	.
8c	.
=710	=710
4.A-X	.
8g-X	.
=711	=711
8f)	.
8A-XL	.
8A-	.
8A-J	.
=712	=712
!!linebreak:original
8A-X	.
8B-L	.
8B-	.
8B-J	.
=713	=713
8B-	.
8B-L	.
8B-	.
8B-J	.
=714	=714
8B-	.
8B-L	.
8B-	.
8B-J	.
=715	=715
8B-	.
8BnL	.
8B	.
8BJ	.
=716	=716
8Bn	.
8BL	.
8B	.
8BJ	.
=717	=717
8Bn	.
8BL 8d	.
8B 8d	.
8BJ 8d	.
=718	=718
8Bn 8d	.
8GL	.
8G	.
8GJ	.
=719	=719
8GL	.
8G	.
8G	.
8GJ	.
=720	=720
8GL	.
8G	.
8G	.
8GJ	.
=721	=721
(8GL	.
8F#XJ)	.
[4G	.
=722	=722
!!linebreak:original
(8GL]	.
8F#XJ)	.
[4G	.
=723	=723
(<8GL]	.
8F#XJ)	.
[4G	.
=724	=724
8GL]	.
8F#X	.
8G	.
8eJ	.
=725	=725
(4.f	.
8d	.
=726	=726
4.Bn	.
8d)	.
=727	=727
2c	.
=728	=728
(<8cL	.
32dLL	.
32e-X	.
32f	.
32gJJJ)	.
[8a-XL	.
8a-'J]	.
=729	=729
(>4a-X	.
8g'L)	.
8f'J)	.
=730	=730
8e-X'L	.
8d'	.
8c'	.
8B-'J	.
=731	=731
8A-X	.
8r	.
4r	.
=732	=732
2r	.
=733	=733
2r	.
=734	=734
2r	.
=735	=735
2r	.
=736	=736
2r	.
=737	=737
2r	.
=738	=738
!!linebreak:original
4r	.
8r	.
8c	.
=739	=739
8f'L	.
8f'	.
8f'	.
8e-X'J	.
=740	=740
8d-X'L	.
8c'	.
8B-'	.
8A-X'J	.
=741	=741
8G'L	.
8g'	.
8g'	.
8f'J	.
=742	=742
8e'L	.
8d-X'	.
8c'	.
8B-'J	.
=743	=743
8A-XL	.
8a-X'	.
8g'	.
8f'J	.
=744	=744
8e-X'L	.
8d-X'	.
8c'	.
8BnJ	.
=745	=745
8c	.
8r	.
[4C	.
=746	=746
8CL]	.
(32DLL	.
32E	.
32F	.
32GJJJ	.
8A-XL)	.
8A-'J	.
=747	=747
!!linebreak:original
8G'L	.
8C'J	.
[4c	.
=748	=748
8c]	.
8cL 8f	.
8c 8f	.
8cJ 8f	.
=749	=749
8c 8e	.
8r	.
[4C	.
=750	=750
8CL]	.
(<40CLL	.
40D	.
40E	.
40F	.
40GJJJ	.
8A-XL)	.
8A-'J)	.
=751	=751
8G'L	.
8C'J	.
[4c	.
=752	=752
8c]	.
8cL 8f	.
8c 8f	.
8cJ 8f	.
=753	=753
8c 8e	.
8eL	.
8e	.
8eJ	.
=754	=754
8eL	.
8e	.
8e	.
8eJ	.
=755	=755
8fL	.
8f	.
8f	.
8fJ	.
=756	=756
!!linebreak:original
8fL	.
8f	.
8f	.
8fJ	.
=757	=757
8f#XL	.
8f#	.
8f#	.
8f#J	.
=758	=758
8f#XL	.
8f#	.
8f#	.
8f#J	.
2r	.
=759	=759
8f#X	.
8r	.
4r	.
=760	=760
4r	.
8r	.
(8d	.
=761	=761
4.e	.
8c#X	.
=762	=762
4.A	.
8G	.
=763	=763
4.F#X	.
8d	.
=764	=764
4.f#X	.
8d	.
=765	=765
4.c#X	.
8e	.
=766	=766
4.g	.
8c#X)	.
=767	=767
!!linebreak:original
(8d	.
8AL	.
8A	.
8AJ	.
=768	=768
8A	.
8AL	.
8A	.
8AJ	.
=769	=769
8A	.
8B-L	.
8B-	.
8B-J	.
=770	=770
8B-	.
8dL	.
8d	.
8dJ	.
=771	=771
8d	.
8r	.
4r	.
=772	=772
4r	.
8r	.
8E-X	.
=773	=773
4.D	.
8F	.
=774	=774
4.B-	.
8A-X	.
=775	=775
4.G	.
8B-	.
=776	=776
4.G	.
8E-X)	.
=777	=777
[2F	.
=778	=778
!!linebreak:original
(8FL]	.
8Bn)	.
8B'	.
8B'J	.
=779	=779
(4c	.
[4G)	.
=780	=780
(8GL]	.
8c#X)	.
(8c#'	.
8c#'J)	.
=781	=781
4d	.
8F#XL	.
8GJ	.
=782	=782
(<8AL	.
8d	.
8A	.
8dJ)	.
=783	=783
(<8B-L	.
8d	.
8B-	.
8dJ)	.
=784	=784
(>8B-L	.
8c	.
8G	.
8cJ)	.
=785	=785
(8AL	.
8c)	.
8c	.
8c'J	.
=786	=786
(8cL	.
8F)	.
8F'	.
8F'J	.
=787	=787
8E	.
4E 4G	.
[8E [8G	.
=788	=788
!!linebreak:original
8EL] 8G]	.
8E' 8G	.
8E' 8G	.
8E'J 8G	.
=789	=789
8G'L	.
8g'	.
8Bn'	.
8bn'J	.
=790	=790
8d'L	.
8dd'	.
8G'	.
8g'J	.
=791	=791
[2E 2G	.
=792	=792
8EL] 8G	.
8E' 8G	.
8E' 8G	.
8E'J 8G	.
=793	=793
8C'L	.
8c'	.
8E'	.
8e'J	.
=794	=794
8G'L	.
8g'	.
8c'	.
8cc'J	.
=795	=795
8C'L	.
8c'	.
8E'	.
8e'J	.
=796	=796
8G'L	.
8g'	.
8c'	.
8cc'J	.
=797	=797
(>4.dd-X	.
8cc)	.
2r	.
=798	=798
!!linebreak:original
(4.dd-X	.
8cc)	.
=799	=799
8r	.
8cc	.
8r	.
8cc	.
=800	=800
8r	.
8cc	.
8r	.
8cc	.
=801	=801
4r	.
4C	.
=802	=802
(4.C 4.c	.
16dLL	.
16eJJ)	.
=803	=803
(24fLL	.
24e	.
24fJJ	.
24gLL	.
24f	.
24eJJ	.
24dLL	.
24c	.
24B-JJ	.
24ALL	.
24G	.
24FJJ)	.
=804	=804
8E'L	.
8E'	.
8C'J 8G	.
8r	.
=805	=805
!!linebreak:original
(>24gLL	.
24f#X	.
24gJJ	.
24aLL	.
24g	.
24fnJJ	.
24eLL	.
24d	.
24cJJ	.
24B-LL	.
24A	.
24GJJ)	.
=806	=806
8F'L	.
8F'	.
8A'J	.
8r	.
=807	=807
8r	.
4c	.
8c	.
=808	=808
8r	.
4c	.
8c	.
=809	=809
8r	.
4c	.
8d	.
=810	=810
(>8eL	.
8f	.
8eJ	.
8r	.
=811	=811
4r	.
(>24a-XLL	.
24g	.
24f	.
24e	.
24d	.
24cJJ)	.
2r	.
=812	=812
8B-'L	.
8B-'	.
8e'J	.
8r	.
=813	=813
!!linebreak:original
4r	.
(24b-LL	.
24a	.
24gJJ	.
24fLL	.
24e	.
24dJJ)	.
=814	=814
8c'L	.
8c'	.
8f'J	.
8r	.
=815	=815
8r	.
4c	.
8c	.
=816	=816
8r	.
4c	.
8c	.
=817	=817
8r	.
4c	.
8A	.
=818	=818
8B-'L	.
8F'	.
8G'	.
8d'J	.
2r	.
=819	=819
4c	.
4C	.
=820	=820
4F	.
4r	.
=821	=821
2r	.
=822	=822
(<16B-LL	.
16c	.
16B-	.
16cJJ	.
16B-LL	.
16c	.
16G	.
16EJJ)	.
=823	=823
4C	.
4r	.
=824	=824
2r	.
=825	=825
2r	.
=826	=826
4r	.
8r	.
8c	.
2r	.
=827	=827
!!linebreak:original
8c'L	.
8c'	.
8c'	.
8c'J	.
=828	=828
4.c	.
8a'	.
=829	=829
(<4.A	.
24ALL	.
24Bn	.
24c#XJJ)	.
=830	=830
8d'L	.
8E'	.
8F'	.
8G'J	.
=831	=831
8A'L	.
8Bn	.
8c	.
8c#X'J	.
=832	=832
8d'L	.
8e'J	.
(16qqd/LL	.
16qqe/JJ)	.
[4f	.
=833	=833
(>8fL]	.
8e	.
8dM)	.
8cJ)	.
=834	=834
(8B-ML	.
8A)	.
(8GM	.
8FJ)	.
=835	=835
(<8EL	.
8F)	.
(8E-X'	.
8C'J)	.
=836	=836
8B-	.
8r	.
4r	.
=837	=837
2r	.
=838	=838
!!linebreak:original
(<16FLL	.
16A	.
16c	.
16B-JJ	.
16ALL	.
16c	.
16f)	.
16e-XJJ	.
=839	=839
4d	.
4r	.
=840	=840
4r	.
16GLL	.
16B-	.
16d)	.
16B-JJ	.
=841	=841
4A	.
4r	.
=842	=842
4r	.
(<16DLL	.
16F#X	.
16B-	.
16AJJ)	.
=843	=843
8GL	.
8dJ	.
8r	.
8d	.
=844	=844
8r	.
8G	.
8r	.
8g	.
=845	=845
8c	.
8r	.
(<4G	.
=846	=846
4A	.
4G)	.
=847	=847
!!linebreak:original
(2E [2G	.
=848	=848
2F) 2G_	.
=849	=849
(<8G]	.
8GL	.
8Bn	.
8cJ	.
=850	=850
8dL	.
8G	.
8c	.
8dJ)	.
=851	=851
(>8eL	.
8G	.
8d	.
8eJ	.
=852	=852
8fL	.
8G	.
8e	.
8fJ	.
=853	=853
8g)	.
4e	.
[8e	.
=854	=854
8e]	.
(8EL	.
8F	.
8GJ)	.
=855	=855
[2C 2A	.
2r	.
=856	=856
[2C 2B-	.
=857	=857
(<8C] 8c	.
8CL	.
8E	.
8FJ)	.
=858	=858
!!linebreak:original
(<8GL	.
8C	.
8F	.
8GJ)	.
=859	=859
(<8AL	.
8C	.
8G	.
8AJ	.
=860	=860
8B-L	.
8C	.
8A	.
8B-J)	.
=861	=861
(<8cL	.
8C	.
8E	.
8FJ	.
=862	=862
8GL	.
8E	.
8F	.
8GJ)	.
=863	=863
8A	.
8r	.
8r	.
8e	.
=864	=864
8f)	.
8r	.
8r	.
8c#X	.
=865	=865
8d)	.
8r	.
8r	.
(8A	.
=866	=866
8B-)	.
8r	.
4r	.
=867	=867
8r	.
8f	.
8r	.
8b-	.
=868	=868
!!linebreak:original
8r	.
8a	.
8r	.
8g	.
=869	=869
2r	.
=870	=870
8r	.
(8cL	.
8fJ)	.
8r	.
=871	=871
8r	.
8AL	.
8dJ	.
8r	.
=872	=872
8r	.
(8FL	.
8B-)	.
[8DJ	.
=873	=873
(8DL]	.
8B-)	.
(8B-'	.
8B-'J)	.
=874	=874
(<4B-	.
8AL	.
8GJ)	.
=875	=875
8F'	.
(>8fL	.
8g	.
8b-J	.
=876	=876
8aL)	.
8f	.
8g	.
8b-J	.
=877	=877
8aL)	.
8a	.
8b-	.
8gJ)	.
=878	=878
!!linebreak:original
(>8cL	.
8A	.
8B-	.
8GJ)	.
=879	=879
(>16A-X'LL	.
16c	.
16a-X	.
16fJJ)	.
(16fLL	.
16e	.
16d	.
16eJJ)	.
=880	=880
(>16f'LL	.
16c	.
16a-X	.
16fJJ	.
16fLL)	.
16e	.
16d	.
16eJJ)	.
=881	=881
8f	.
(<16c-XLL	.
16A-XJJ	.
16d-XLL	.
16B-JJ)	.
8r	.
=882	=882
(>16cLL	.
16A-XJJ)	.
8r	.
(16B-LL	.
16GJJ)	.
8r	.
=883	=883
(16A-XLL	.
16c)	.
16f'	.
16c'JJ	.
16f'LL	.
16c'	.
16f'	.
16c'JJ	.
=884	=884
!!linebreak:original
16eLL	.
16c	.
16e	.
16cJJ	.
16eLL	.
16c	.
16e	.
16cJJ	.
=885	=885
16fLL	.
16c	.
16f	.
16cJJ	.
(16f'LL	.
16c')	.
16A-X	.
16cJJ	.
=886	=886
16B-LL	.
16c	.
16G	.
16cJJ	.
16B-LL	.
16c	.
16G	.
16cJJ	.
=887	=887
(>4.f	.
8a)	.
=888	=888
(4.b-	.
8g)	.
=889	=889
(>4.a	.
8f)	.
=890	=890
(>8.gL	.
16eJk	.
8.etL	.
32dLL)	.
32eJJJ	.
=891	=891
(>4.F~	.
8F')	.
=892	=892
!!linebreak:original
[4.F~	.
8F']	.
=893	=893
[4.F~	.
8F']	.
=894	=894
[4.F~	f
8F']	.
=895	=895
8F	p
8r	.
4r	.
=896	=896
8f'L	.
8f'	.
8f'J	.
8r	.
=897	=897
2r	.
=898	=898
8f'L	.
8f'	.
8f'J	.
8r	.
=899	=899
2r	.
=900	=900
4r	.
8g'L	p
8g'J	.
=901	=901
8b-'	.
8r	.
4r	.
=902	=902
8g'L	pp
8g'	.
8g'	.
8g'J	.
=903	=903
8gL	.
8g	.
8g	.
8gJ	.
=904	=904
!!linebreak:original
8f#XL	.
8f#	.
8f#	.
8f#J	.
=905	=905
8f#XL	.
8f#	.
8f#	.
8f#J	.
=906	=906
8fL	.
8f	.
8f	.
8fJ	.
=907	=907
8fL	.
8f	.
8f	.
8fJ	.
=908	=908
8fL	.
8f	.
8f	.
8fJ	.
=909	=909
8fL	.
8f	.
8f	.
8fJ	.
=910	=910
8eL	.
8e	.
8e	.
8eJ	.
=911	=911
8eL	.
8e	.
8e	.
8eJ	.
=912	=912
8eL	.
8e	.
8e	.
8eJ	.
=913	=913
8eL	.
8e	.
8g	.
8cJ	.
=914	=914
!!linebreak:original
(24fLL	.
24e	.
24fJJ	.
24gLL	.
24f	.
24eJJ	.
24dLL	.
24c	.
24B-JJ	.
24ALL	.
24G	.
24FJJ)	.
=915	=915
8E'L	.
8E'	.
8G'J	.
8r	.
=916	=916
24gLL	.
24f#X	.
24gJJ	.
24aLL	.
24g	.
24fnJJ	.
24eLL	.
24d	.
24cJJ	.
24B-LL	.
24A	.
24GJJ	.
=917	=917
8F'L	.
8F'	.
8A'J	.
8r	.
=918	=918
(>2a	.
=919	=919
4.b-)	.
8g'	.
=920	=920
8e'L	.
8c'J	.
[4cc	sf
=921	=921
!!linebreak:original
8cc'L]	.
(8a'	.
8cc'	.
8a'J)	.
=922	=922
8f	.
8CL 8c	.
8C 8c	.
8CJ 8c	.
=923	=923
8CL 8c	.
8C 8c	.
8C 8c	.
8CJ 8c	.
2r	.
=924	=924
8CL 8c	.
8C 8c	.
8C 8c	.
8CJ 8c	.
2r	.
=925	=925
8C 8c	.
8F'L	.
8A'	.
8c'J	.
=926	=926
2c	.
=927	=927
2B-	.
=928	=928
(>24gLL	.
24f#X	.
24gJJ	.
24aLL	.
24g	.
24fnJJ	.
24eLL	.
24d	.
24cJJ	.
24B-LL	.
24A	.
24GJJ)	.
=929	=929
8F'	.
8F'L	.
8A'	.
8c'J	.
=930	=930
!!linebreak:original
(>24e-XLL	.
24d	.
24e-JJ	.
24fLL	.
24e-	.
24dJJ	.
24cLL	.
24B-	.
24AJJ	.
24GLL	.
24F)	.
24E-XJJ	.
=931	=931
8D'L	.
8D'	.
8d'J	.
8r	.
=932	=932
8B-'L	.
8B-'	.
8e'	.
8e'J	.
=933	=933
8f	.
8r	.
8r	.
[8c	.
=934	=934
8cL]	.
8c'	.
8r	.
[8cJ	.
2r	.
=935	=935
8cL	.
8f'J	.
8r	.
8c	.
=936	=936
(16ALL	.
16F)	.
16A'	.
16A'JJ	.
(16B-LL	.
16G)	.
16B-'	.
16B-'JJ	.
=937	=937
(16ALL	.
16F)	.
16c'	.
16c'JJ	.
(16dLL	.
16B-)	.
16d'	.
16d'JJ	.
=938	=938
!!linebreak:original
(16e-XLL	.
16c)	.
16e-'	.
16e-'JJ	.
(16dLL	.
16B-)	.
16d'	.
16d'JJ	.
2r	.
=939	=939
(16eLL	.
16B-)	.
16e'	.
16e'JJ	.
(16fLL	.
16c)	.
16f'	.
16f'JJ	.
=940	=940
(16fLL	.
16d)	.
16f'	.
16f'JJ	.
(16fLL	.
16d)	.
16f'	.
16f'JJ	.
2r	.
=941	=941
(16f'LL	.
16c)	.
16f'	.
16f'JJ	.
(16gLL	.
16c)	.
16g'	.
16g'JJ	.
=942	=942
8f	.
8r	.
4r	.
=943	=943
24F'LL	.
(>24f	.
24eJJ	.
24dLL	.
24c	.
24BnJJ	.
24cLL	.
24d	.
24cJJ	.
24B-XLL	.
24A	.
24GJJ)	.
=944	=944
!!linebreak:original
8F	.
8r	.
4r	.
=945	=945
24F'LL	.
(>24f	.
24eJJ	.
24dLL	.
24c	.
24BnJJ	.
24cLL	.
24d	.
24cJJ	.
24B-XLL	.
24A	.
24GJJ)	.
=946	=946
24F'LL	.
(>24f	.
24eJJ	.
24dLL	.
24c	.
24BnJJ	.
24cLL	.
24d	.
24cJJ	.
24B-XLL	.
24A)	.
24GJJ	.
=947	=947
24F'LL	.
(>24f	.
24eJJ	.
24dLL	.
24c	.
24BnJJ	.
24cLL	.
24d	.
24cJJ	.
24B-XLL	.
24A	.
24GJJ)	.
=948	=948
4A	.
4C	ff
=949	=949
4F	.
4r	.
==	==
*-	*-
!!!YEM:	FFIN conversion: MUSITEK, Ojai, California
!!!RDF**kern: > = above
!!!RDF**kern: < = below
